rotr.svg

<?xml version="1.0" encoding="UTF-8" standalone="no"?>
<!-- Created with Inkscape (http://www.inkscape.org/) -->

<svg
   xmlns:dc="http://purl.org/dc/elements/1.1/"
   xmlns:cc="http://creativecommons.org/ns#"
   xmlns:rdf="http://www.w3.org/1999/02/22-rdf-syntax-ns#"
   xmlns:svg="http://www.w3.org/2000/svg"
   xmlns="http://www.w3.org/2000/svg"
   xmlns:inkscape="http://www.inkscape.org/namespaces/inkscape"
   version="1.1"
   width="450"
   height="135"
   id="svg2"
   xml:space="preserve"><metadata
     id="metadata8"><rdf:RDF><cc:Work
         rdf:about=""><dc:format>image/svg+xml</dc:format><dc:type
           rdf:resource="http://purl.org/dc/dcmitype/StillImage" /></cc:Work></rdf:RDF></metadata><defs
     id="defs6"><clipPath
       id="clipPath16"><path
         d="M 0,0 360,0 360,108 0,108 0,0 z"
         inkscape:connector-curvature="0"
         id="path18" /></clipPath></defs><g
     transform="matrix(1.25,0,0,-1.25,0,135)"
     id="g10"><g
       id="g12"><g
         clip-path="url(#clipPath16)"
         id="g14"><path
           d="M 0,108 360,108 360,0 0,0 0,108 z"
           inkscape:connector-curvature="0"
           id="path20"
           style="fill:#ffffff;fill-opacity:0;fill-rule:evenodd;stroke:none" /><g
           id="g22"><path
             d="m 255.6,61.2 19.5,0"
             inkscape:connector-curvature="0"
             id="path24"
             style="fill:none;stroke:#000000;stroke-width:0.69999999;stroke-linecap:butt;stroke-linejoin:miter;stroke-miterlimit:10;stroke-opacity:1;stroke-dasharray:none" /></g><path
           d="m 284.4,61.2 -9.7,3.2 0,-6.5 9.7,3.3 z"
           inkscape:connector-curvature="0"
           id="path26"
           style="fill:#000000;fill-opacity:1;fill-rule:evenodd;stroke:none" /><g
           id="g28"><text
             transform="matrix(1,0,0,-1,71.9,80.1)"
             id="text30"><tspan
               x="0 9.1850004 16.489"
               y="0"
               id="tspan32"
               style="font-size:11px;font-variant:normal;font-weight:normal;writing-mode:lr-tb;fill:#1a1a1a;fill-opacity:1;fill-rule:nonzero;stroke:none;font-family:Liberation Sans;-inkscape-font-specification:LiberationSans">MSB</tspan></text>
</g><g
           id="g34"><text
             transform="matrix(1,0,0,-1,244.7,80.1)"
             id="text36"><tspan
               x="0 6.105 13.409"
               y="0"
               id="tspan38"
               style="font-size:11px;font-variant:normal;font-weight:normal;writing-mode:lr-tb;fill:#1a1a1a;fill-opacity:1;fill-rule:nonzero;stroke:none;font-family:Liberation Sans;-inkscape-font-specification:LiberationSans">LSB</tspan></text>
</g><path
           d="m 171,43.2 -84.6,0 0,32.4 169.2,0 0,-32.4 -84.6,0 z"
           inkscape:connector-curvature="0"
           id="path40"
           style="fill:#ffffff;fill-opacity:1;fill-rule:evenodd;stroke:none" /><g
           id="g42"><path
             d="m 171,43.2 -84.6,0 0,32.4 169.2,0 0,-32.4 -84.6,0 z"
             inkscape:connector-curvature="0"
             id="path44"
             style="fill:none;stroke:#000000;stroke-width:0.70749998;stroke-linecap:butt;stroke-linejoin:round;stroke-miterlimit:10;stroke-opacity:1;stroke-dasharray:none" /></g><g
           id="g46"><text
             transform="matrix(1,0,0,-1,164,55.6)"
             id="text48"><tspan
               x="0 7.8979998"
               y="0"
               id="tspan50"
               style="font-size:11px;font-variant:normal;font-weight:normal;writing-mode:lr-tb;fill:#1a1a1a;fill-opacity:1;fill-rule:nonzero;stroke:none;font-family:Liberation Sans;-inkscape-font-specification:LiberationSans">Rn</tspan></text>
</g><g
           id="g52"><text
             transform="matrix(1,0,0,-1,11,55.3)"
             id="text54"><tspan
               x="0 7.8979998 16.587999 23.287001"
               y="0"
               id="tspan56"
               style="font-size:11px;font-variant:normal;font-weight:normal;writing-mode:lr-tb;fill:#1a1a1a;fill-opacity:1;fill-rule:nonzero;stroke:none;font-family:Liberation Sans;-inkscape-font-specification:LiberationSans">ROTR</tspan></text>
</g><path
           d="m 295.2,43.2 -10.8,0 0,32.4 21.6,0 0,-32.4 -10.8,0 z"
           inkscape:connector-curvature="0"
           id="path58"
           style="fill:#ffffff;fill-opacity:1;fill-rule:evenodd;stroke:none" /><g
           id="g60"><path
             d="m 295.2,43.2 -10.8,0 0,32.4 21.6,0 0,-32.4 -10.8,0 z"
             inkscape:connector-curvature="0"
             id="path62"
             style="fill:none;stroke:#000000;stroke-width:0.70749998;stroke-linecap:butt;stroke-linejoin:round;stroke-miterlimit:10;stroke-opacity:1;stroke-dasharray:none" /></g><g
           id="g64"><text
             transform="matrix(1,0,0,-1,291.9,55.6)"
             id="text66"><tspan
               x="0"
               y="0"
               id="tspan68"
               style="font-size:11px;font-variant:normal;font-weight:normal;writing-mode:lr-tb;fill:#1a1a1a;fill-opacity:1;fill-rule:nonzero;stroke:none;font-family:Liberation Sans;-inkscape-font-specification:LiberationSans">T</tspan></text>
</g><g
           id="g70"><path
             d="m 266.4,61.2 0,-36"
             inkscape:connector-curvature="0"
             id="path72"
             style="fill:none;stroke:#000000;stroke-width:0.70749998;stroke-linecap:butt;stroke-linejoin:round;stroke-miterlimit:10;stroke-opacity:1;stroke-dasharray:none" /></g><g
           id="g74"><path
             d="m 266.4,25.2 -201.6,0"
             inkscape:connector-curvature="0"
             id="path76"
             style="fill:none;stroke:#000000;stroke-width:0.70749998;stroke-linecap:butt;stroke-linejoin:round;stroke-miterlimit:10;stroke-opacity:1;stroke-dasharray:none" /></g><g
           id="g78"><path
             d="m 64.8,61.2 0,-36"
             inkscape:connector-curvature="0"
             id="path80"
             style="fill:none;stroke:#000000;stroke-width:0.70749998;stroke-linecap:butt;stroke-linejoin:round;stroke-miterlimit:10;stroke-opacity:1;stroke-dasharray:none" /></g><g
           id="g82"><path
             d="m 77.1,61.2 -12.3,0"
             inkscape:connector-curvature="0"
             id="path84"
             style="fill:none;stroke:#000000;stroke-width:0.69999999;stroke-linecap:butt;stroke-linejoin:miter;stroke-miterlimit:10;stroke-opacity:1;stroke-dasharray:none" /></g><path
           d="m 86.4,61.2 -9.7,3.2 0,-6.5 9.7,3.3 z"
           inkscape:connector-curvature="0"
           id="path86"
           style="fill:#000000;fill-opacity:1;fill-rule:evenodd;stroke:none" /></g></g></g></svg>

<svg xmlns="http://www.w3.org/2000/svg" width="450" height="135" xml:space="preserve"><defs><clipPath id="a"><path d="M0 0h360v108H0V0z"/></clipPath></defs><g clip-path="url(#a)" transform="matrix(1.25 0 0 -1.25 0 135)"><path d="M0 108h360V0H0v108z" style="fill:#fff;fill-opacity:0;fill-rule:evenodd;stroke:none"/><path d="M255.6 61.2h19.5" style="fill:none;stroke:#000;stroke-width:.69999999;stroke-linecap:butt;stroke-linejoin:miter;stroke-miterlimit:10;stroke-opacity:1;stroke-dasharray:none"/><path d="m284.4 61.2-9.7 3.2v-6.5l9.7 3.3z" style="fill:#000;fill-opacity:1;fill-rule:evenodd;stroke:none"/><text transform="matrix(1 0 0 -1 71.9 80.1)"><tspan x="0 9.1850004 16.489" y="0" style="font-size:11px;font-variant:normal;font-weight:400;writing-mode:lr-tb;fill:#1a1a1a;fill-opacity:1;fill-rule:nonzero;stroke:none;font-family:Liberation Sans;-inkscape-font-specification:LiberationSans">MSB</tspan></text><text transform="matrix(1 0 0 -1 244.7 80.1)"><tspan x="0 6.105 13.409" y="0" style="font-size:11px;font-variant:normal;font-weight:400;writing-mode:lr-tb;fill:#1a1a1a;fill-opacity:1;fill-rule:nonzero;stroke:none;font-family:Liberation Sans;-inkscape-font-specification:LiberationSans">LSB</tspan></text><path d="M171 43.2H86.4v32.4h169.2V43.2H171z" style="fill:#fff;fill-opacity:1;fill-rule:evenodd;stroke:none"/><path d="M171 43.2H86.4v32.4h169.2V43.2H171z" style="fill:none;stroke:#000;stroke-width:.70749998;stroke-linecap:butt;stroke-linejoin:round;stroke-miterlimit:10;stroke-opacity:1;stroke-dasharray:none"/><text transform="matrix(1 0 0 -1 164 55.6)"><tspan x="0 7.8979998" y="0" style="font-size:11px;font-variant:normal;font-weight:400;writing-mode:lr-tb;fill:#1a1a1a;fill-opacity:1;fill-rule:nonzero;stroke:none;font-family:Liberation Sans;-inkscape-font-specification:LiberationSans">Rn</tspan></text><text transform="matrix(1 0 0 -1 11 55.3)"><tspan x="0 7.8979998 16.587999 23.287001" y="0" style="font-size:11px;font-variant:normal;font-weight:400;writing-mode:lr-tb;fill:#1a1a1a;fill-opacity:1;fill-rule:nonzero;stroke:none;font-family:Liberation Sans;-inkscape-font-specification:LiberationSans">ROTR</tspan></text><path d="M295.2 43.2h-10.8v32.4H306V43.2h-10.8z" style="fill:#fff;fill-opacity:1;fill-rule:evenodd;stroke:none"/><path d="M295.2 43.2h-10.8v32.4H306V43.2h-10.8z" style="fill:none;stroke:#000;stroke-width:.70749998;stroke-linecap:butt;stroke-linejoin:round;stroke-miterlimit:10;stroke-opacity:1;stroke-dasharray:none"/><text transform="matrix(1 0 0 -1 291.9 55.6)"><tspan x="0" y="0" style="font-size:11px;font-variant:normal;font-weight:400;writing-mode:lr-tb;fill:#1a1a1a;fill-opacity:1;fill-rule:nonzero;stroke:none;font-family:Liberation Sans;-inkscape-font-specification:LiberationSans">T</tspan></text><path d="M266.4 61.2v-36M266.4 25.2H64.8M64.8 61.2v-36" style="fill:none;stroke:#000;stroke-width:.70749998;stroke-linecap:butt;stroke-linejoin:round;stroke-miterlimit:10;stroke-opacity:1;stroke-dasharray:none"/><path d="M77.1 61.2H64.8" style="fill:none;stroke:#000;stroke-width:.69999999;stroke-linecap:butt;stroke-linejoin:miter;stroke-miterlimit:10;stroke-opacity:1;stroke-dasharray:none"/><path d="m86.4 61.2-9.7 3.2v-6.5l9.7 3.3z" style="fill:#000;fill-opacity:1;fill-rule:evenodd;stroke:none"/></g></svg>
